

d1 $ n "-30 -29 -25 -23 -22 -21 -15" # s "fluid" # progNum 33 # midichan 1 # gain 1.0

d2 $ n "-25 1 [3 3] [1 -24*2] [1 -7*3] 1 1" # s "fluid" # midichan 9 # gain "1.1 0.9 1.0 0.9 0.9"

d2 $ n "<-25 [-25 -25]> <1 1*2 1*3> [3 3] [1 -24*2] [1 [-7*3|-7|-7]]" # s "fluid" # midichan 9 # gain "1.1 0.9 1.0 0.9 0.9"

d2 $ n "-25 1 [3 3] [1 -24*2] [1 -7*3]" # s "fluid" # midichan 9 # gain "1.1 0.9 1.0 0.9 0.9"

once $ 

hush
